app/dist/common/images/wanxiang-qianchao.svg

<svg height="18" viewBox="0 0 18 18" width="18" xmlns="http://www.w3.org/2000/svg"><path d="m0 0h18v18h-18z" fill="#f0f3fa"/><g fill="#003789"><path d="m4 9a5.1 5.1 0 0 1 3.76-5h3.24v4.69c0 .57-.35 1.83-1.79 2.3-.32-.24-.46-.33-.61-.43l-.1-.06c.52-.1 1.4-.8 1.5-1.81v-3.44h-1.81a3.72 3.72 0 0 0 -2.97 3.75c0 1.07.4 2.1 1.06 2.8v1.58a5.33 5.33 0 0 1 -2.28-4.38z"/><path d="m14 8.98c0 2.44-1.6 4.48-3.76 5.02h-3.24v-4.7c0-.58.35-1.85 1.79-2.31a15.9 15.9 0 0 1 .71.52 2.1 2.1 0 0 0 -1.5 1.82v3.42h1.81a3.7 3.7 0 0 0 2.97-3.73c0-1.08-.4-2.1-1.06-2.81v-1.59a5.27 5.27 0 0 1 2.28 4.36z"/></g></svg>

<!-- by TradingView --><svg width="18" height="18" viewBox="0 0 18 18" xmlns="http://www.w3.org/2000/svg"><path fill="#F0F3FA" d="M0 0h18v18H0z"/><path d="M4 9a5.1 5.1 0 0 1 3.76-5H11V8.69c0 .57-.35 1.83-1.79 2.3-.32-.24-.46-.33-.61-.43l-.1-.06c.52-.1 1.4-.8 1.5-1.81V5.25H8.19A3.72 3.72 0 0 0 5.22 9c0 1.07.4 2.1 1.06 2.8v1.58A5.33 5.33 0 0 1 4 9Z" fill="#003789"/><path d="M14 8.98c0 2.44-1.6 4.48-3.76 5.02H7V9.3c0-.58.35-1.85 1.79-2.31a15.9 15.9 0 0 1 .71.52A2.1 2.1 0 0 0 8 9.33v3.42h1.81a3.7 3.7 0 0 0 2.97-3.73c0-1.08-.4-2.1-1.06-2.81V4.62A5.27 5.27 0 0 1 14 8.98Z" fill="#003789"/></svg>
